!!!OTL: Pusonglin liqu
!!!ARE: Asia, China,ÿShandong, Rizhao
!! III, 399
!!!SCT: C1577
!!!YEM: Copyright 1995, estate of Helmut Schaffrath.
**kern
*ICvox
*Ivox
*M4/4
*k[f#c#g#]
*A:
{4bb
8.bb
16eee
8ccc#
8bb
[4aa
=1
8aa]
4ee
8ff#
4aa
4gg#
=2
4cc#
4ff#
8cc#
8ccc#
8ff#
[8ee
=3
8ee]}
{4cc#
8b
8cc#
8ee
8cc#
[8b
=4
8b]
8aa
8aa
8ccc#
8bb
8gg#
8ff#
[8ee
=5
1ee]}
=6
{4ff#
4cc#
4ff#
4ff#
=7
4cc#
4ff#
4ff#
4cc#
=8
8b
8ee
8cc#
8b
2a}
=9
{16ff#
16aa
4ff#
8ee
4ff#
8ee
8ff#
=10
4cc#
8ee
8ff#
8ee
8ff#
[4aa
=11
8aa]
4ccc#
8bb
8gg#
8ff#
8ee
8ff#
=12
[2ee}
{8ee]
8aa
8ff#
8ee
=13
8cc#
8ee
8cc#
8b
8a
4ee
8b
=14
8cc#
8ee
8cc#
8b
2a}
=15
{4r
4ff#
4ff#
4cc#
=16
4ff#
4ff#
4ee
8.dd#
16cc#
=17
8.b
16ee
8cc#
8b
2a}
=18
{8bb
4bb
8aa#
8bb
8eee
8ccc#
8bb
=19
4.aa
8ee
8ff#
4.aa
=20
4gg#}
{4cc#
4cc#
8cc#
8bb
=21
8ff#
4ee
8cc#
4b
8cc#
8ee
=22
8cc#
8b
4.aa
8ccc#
4bb
=23
8gg#
8ff#
8ee
8ff#
4.ee}
{8aa
=24
8ff#
8ee
8cc#
8b
8a
4ee
8b
=25
8cc#
8ee
8cc#
8b
2a}
=26
{16ff#
16aa
4ff#
8cc#
16ff#
16aa
4.ff#
=27
4cc#
4ee
8.ee
16ff#
[4aa
=28
8aa]
4ccc#
8bb
8gg#
8ff#
8ee
8ff#
=29
8ee}
{4aa
4ee
4b
8cc#
=30
8cc#
8ee
8cc#
8b
2a}
=31
{8cc#
4ff#
8ff#
4cc#
4ff#
=32
4ff#
8cc#
8ff#
8ff#
4.cc#
=33
8.b
16ee
8cc#
8b
2a}
=34
{4bb
8.bb
16eee
8ccc#
8bb
[4aa
=35
8aa]
4ee
8ff#
4aa
4gg#
=36
4cc#
8ff#
8cc#
4cc#
8cc#
8ccc#
=37
8ff#
4ee}
{4cc#
8b
8cc#
8b
=38
8cc#
8ee
8cc#
8b
4.aa
[8ccc#
=39
8ccc#]
8bb
8gg#
8ff#
8ee
8ff#
[4ee
=40
8ee]}
{8aa
8ff#
8ee
8cc#
8ee
8cc#
8b
=41
8a
4ee
8b
8cc#
8ee
8cc#
8b
=42
1a}
==
!!!AGN: Xiaodiao, Shuahaier
!!!AMT: simple quadruple
!!!AIN: vox
!!!EED: Helmut Schaffrath
!!!EEV: 1.0
*-
!!!ONB: Tied note syntax fixed by Craig Sapp, 2004/05/03/
